icons/spleen.svg

<svg width="48" height="48" viewBox="0 0 48 48" fill="none" xmlns="http://www.w3.org/2000/svg">
<path d="M15.2242 7.63526C13.398 8.75847 12.5598 9.83969 12.2161 10.7392C11.8837 11.6094 11.909 12.5834 12.3665 13.7347C13.1465 15.6977 15.0571 17.84 17.6167 19.8763C17.3839 19.9453 17.1526 20.02 16.9228 20.1001C16.8561 20.1178 16.7893 20.137 16.7223 20.1576C16.5517 20.2102 16.3894 20.2773 16.2363 20.3573C15.9703 20.4638 15.7064 20.5776 15.4444 20.6982C9.96535 16.0046 7.1374 10.2723 14.2065 5.92443C30.0226 -3.8031 45.1103 25.8323 34.3954 39.2888C33.1542 40.8476 28.3581 46.1868 22.2548 43.0073C15.2678 39.3674 17.1929 35.1001 18.965 31.172C19.3694 30.2756 19.7659 29.3969 20.0466 28.5473C20.5639 28.8733 21.1877 29.1344 21.9132 29.2209C21.7544 29.6943 21.5733 30.152 21.3908 30.5855C21.199 31.041 20.9934 31.4975 20.7971 31.9326L20.7787 31.9735C20.5856 32.4014 20.4013 32.81 20.2271 33.2186C19.4795 34.9731 19.1334 36.2796 19.3682 37.4022C19.5755 38.3937 20.361 39.7461 23.1895 41.2196C25.5403 42.4442 27.562 42.0489 29.2367 41.1533C30.9937 40.2137 32.2959 38.7418 32.8505 38.0454C35.1457 35.1629 36.1385 31.3094 35.9953 27.1305C35.8523 22.9547 34.574 18.6017 32.5127 14.9205C30.4424 11.2231 27.6756 8.36466 24.6814 6.96673C21.7795 5.61185 18.5772 5.57304 15.2242 7.63526Z" fill="black"/>
<path d="M23.1904 21.4289C23.7311 21.5025 24.1177 22.0122 24.0539 22.5673C23.9901 23.1224 23.5 23.5127 22.9593 23.4391C22.1212 23.3251 21.3542 23.2969 20.6339 23.3529C20.7662 23.5176 20.8849 23.6793 20.9911 23.8259C21.0426 23.897 21.0916 23.9651 21.1386 24.0304C21.4244 24.4276 21.6356 24.7211 21.8727 24.942C22.1055 25.1587 22.2638 25.2092 22.4447 25.1925C22.9863 25.1426 23.471 25.5542 23.5273 26.112C23.5836 26.6698 23.1902 27.1624 22.6487 27.2123C21.7531 27.2948 21.067 26.9077 20.5608 26.4363C20.1611 26.0641 19.814 25.5785 19.5401 25.1953C19.5347 25.1877 19.5293 25.1802 19.5239 25.1727C19.4865 25.1204 19.4505 25.0701 19.416 25.0224C19.0823 24.5618 18.841 24.2745 18.6013 24.1155C18.43 24.0018 18.2446 23.9391 17.9039 24.0441C17.8892 24.0486 17.8746 24.0527 17.8598 24.0565C17.715 24.1208 17.5709 24.1893 17.4271 24.262C15.7355 25.1166 14.0445 26.571 11.9292 28.7256C11.5451 29.1168 10.9209 29.1092 10.5349 28.7085C10.149 28.3078 10.1475 27.6659 10.5316 27.2747C12.6729 25.0935 14.5486 23.4442 16.5373 22.4394C18.5665 21.4141 20.6611 21.0846 23.1904 21.4289Z" fill="black"/>
<path d="M18.3407 11.7519C22.3614 15.2776 25.2082 19.0756 26.3895 23.1518C27.5603 27.1915 27.1287 31.618 24.3794 36.5101L26.1229 37.4899C29.1038 32.1859 29.6474 27.2084 28.3105 22.5951C26.984 18.0182 23.8401 13.9143 19.6593 10.2481L18.3407 11.7519Z" fill="black"/>
</svg>

<svg
  xmlns="http://www.w3.org/2000/svg"
  width="24"
  height="24"
  viewBox="0 0 24 24"
  fill="none"
  stroke="currentColor"
  stroke-width="2"
  stroke-linecap="round"
  stroke-linejoin="round"
>
  <path d="M15.224 7.635c-1.826 1.123-2.664 2.205-3.008 3.104-.332.87-.307 1.844.15 2.996.78 1.963 2.691 4.105 5.25 6.141a15 15 0 0 0-.693.224 5 5 0 0 0-.2.058q-.257.079-.487.2-.399.16-.792.34c-5.479-4.693-8.307-10.426-1.238-14.774C30.024-3.803 45.11 25.832 34.397 39.29c-1.242 1.559-6.038 6.898-12.141 3.718-6.987-3.64-5.062-7.907-3.29-11.835.404-.896.8-1.775 1.082-2.625a4.5 4.5 0 0 0 1.866.674c-.159.473-.34.931-.522 1.364-.192.456-.398.912-.594 1.348l-.018.04c-.193.428-.378.837-.552 1.246-.747 1.754-1.094 3.06-.859 4.183.208.992.993 2.344 3.822 3.818 2.35 1.224 4.372.829 6.047-.067 1.757-.94 3.059-2.411 3.613-3.108 2.296-2.882 3.288-6.736 3.145-10.914-.143-4.176-1.421-8.53-3.482-12.21-2.07-3.698-4.837-6.556-7.832-7.954-2.902-1.355-6.104-1.394-9.457.668" />
  <path d="M23.19 21.429c.541.074.928.583.864 1.138a.975.975 0 0 1-1.095.872 11 11 0 0 0-2.325-.086c.132.165.25.326.357.473q.077.107.148.204c.285.398.497.691.734.912.232.217.39.267.572.25.541-.05 1.026.362 1.082.92s-.337 1.05-.878 1.1c-.896.083-1.582-.304-2.088-.776-.4-.372-.747-.858-1.02-1.24l-.017-.023-.108-.15c-.334-.461-.575-.748-.815-.907-.171-.114-.356-.177-.697-.072l-.044.012a10 10 0 0 0-.433.206c-1.691.855-3.383 2.309-5.498 4.464a.967.967 0 0 1-1.394-.017 1.034 1.034 0 0 1-.003-1.434c2.14-2.181 4.017-3.83 6.005-4.836 2.03-1.025 4.124-1.354 6.653-1.01" />
  <path d="M18.34 11.752c4.021 3.526 6.868 7.324 8.05 11.4 1.17 4.04.739 8.466-2.01 13.358l1.743.98c2.98-5.304 3.524-10.282 2.188-14.895-1.327-4.577-4.47-8.68-8.652-12.347z" />
</svg>
